X: 11242
T: Dusty Miller, The
R: slip jig
M: 9/8
K: Amajor
|:B2 d d2 A B2 G|E2 A A2 B c2 A|B2 d d2 A B2 G|D2 G G2 A B2 G:|
|:B2 d e2 f g3|a2 A A2 B c2 A|B2 d e2 f g2 a|g2 e d2 c B2 G:|
|:B3 B2 A G2 A|E2 A A2 B c2 A|B3 B2 A G2 A|D2 G G2 A B2 G:|
|:c2 e e2 B cBA|F2 B B2 c dcB|c2 e e2 B cBA|E2 A A2 B cBA:|
|:c2 e f2 g aga|b2 B B2 c dcB|c2 e f2 g a2 b|a2 f e2 d cBA:|
|:c3 c2 B AGA|F2 B B2 c dcB|c3 c2 B AGA|E2 A A2 B cBA:|

